X: 691
T: Evvel Benim Nazlı Yârim
C: Şakir Ağa
O: Turkey
F: http://compmusic.upf.edu/node/140
N: mustear--sarki--aksak--evvel_benim--sakir_aga
N: makam= mustear
N: form= sarki
N: usul= aksak = 9/8
M: 9/8
L: 1/16
K: C _1/4B _1/4e ^f 
Q: 1/4=132
%%MIDI tuningsystem comma53
Bd^cd cdcB dcB^A B4 z2 | ^cd cBcd =e=fed dcd4z2  | 
w:  ARANAĞME  |   | 
dg=f=e agfe fed^c dcB^A B2 | (3B2^c2d2=e2 dcdc B^AB4z2  | 
w:   |   | 
Bd^cd cdcB dcB^A B4 z2 | ^cd cBcd =e=fed dcd4z2  | 
w:  ARANAĞME  |   | 
dg=f=e agfe fed^c dcB^A B2 | (3B2^c2d2=e2 dcdc B^AB4z2  | 
w:   |   | 
B4 d^cd=c B^AGA B4 z2 | d4d3/2^c/ B2cd =edd4dc  | 
w:  Ev vel  *  *  *  be *  *  *  nim   |  naz lı  *  *  yâ *  *  *  rim    | 
d4 z2dg g=ff=e fed^c B^A | d4d^c d=cB^A GAB4z2  | 
w:  *  Se ve rim  *  *  *  kim  |  se ler  *  *  *  bil *  *  *  mez    | 
B4 d^cd=c B^AGA B4 z2 | d4d3/2^c/ B2cd =edd4dc  | 
w:  Ev vel  *  *  *  be *  *  *  nim   |  naz lı  *  *  yâ *  *  *  rim    | 
d4 z2dg g=ff=e fed^c B^A | B4d^c d=cB^A GAB3gf^e  | 
w:  *  Se ve rim  *  *  *  kim  |  se ler  *  *  *  bil *  *  *  mez   SAZ  | 
f4 ^e2f2 f2eg f4 z2 | d4ag =f=eed/e/ d^cd4ce  | 
w:  *  Bir_ aş ka *  *  dır   |  düş tü  *  *  *  gön *  *  *  *  lüm    | 
d4 z2dg g=ff=e fed^c B^A | B4d^c d=cB^A GAB3gf^e  | 
w:  *  Ya na rım  *  *  *  kim  |  se ler  *  *  *  bil *  *  *  mez   SAZ  | 
f4 ^e2f2 f2eg f4 z2 | d4ag =f=eed/e/ d^cd4ce  | 
w:  *  Bir_ aş ka *  *  dır   |  düş tü  *  *  *  gön *  *  *  *  lüm    | 
d4 z2dg g=ff=e fed^c B^A | B4d^c d=cB^A GAB4z2  | 
w:  *  Ya na rım  *  *  *  kim  |  se ler  *  *  *  bil *  *  *  mez    | 
Bd^cd cdcB dcB^A B4 z2 | ^cd cBcd =e=fed dcd4z2  | 
w:  ARANAĞME  |   | 
dg=f=e agfe fed^c dcB^A B2 | (3B2^c2d2=e2 dcdc B^AB4z2  | 
w:   |   | 
Bd^cd cdcB dcB^A B4 z2 | ^cd cBcd =e=fed dcd4z2  | 
w:  ARANAĞME  |   | 
dg=f=e agfe fed^c dcB^A B2 | (3B2^c2d2=e2 dcdc B^AB4z2  | 
w:   |   | 
B4 d^cd=c B^AGA B4 z2 | d4d3/2^c/ B2cd =edd4dc  | 
w:  Ev vel  *  *  *  be *  *  *  nim   |  naz lı  *  *  yâ *  *  *  rim    | 
d4 z2dg g=ff=e fed^c B^A | d4d^c d=cB^A GAB4z2  | 
w:  *  Se ve rim  *  *  *  kim  |  se ler  *  *  *  bil *  *  *  mez    | 
B4 d^cd=c B^AGA B4 z2 | d4d3/2^c/ B2cd =edd4dc  | 
w:  Ev vel  *  *  *  be *  *  *  nim   |  naz lı  *  *  yâ *  *  *  rim    | 
d4 z2dg g=ff=e fed^c B^A | B4d^c d=cB^A GAB3gf^e  | 
w:  *  Se ve rim  *  *  *  kim  |  se ler  *  *  *  bil *  *  *  mez   SAZ  | 
f4 ^e2f2 f2eg f4 z2 | d4ag =f=eed/e/ d^cd4ce  | 
w:  *  Bir_ aş ka *  *  dır   |  düş tü  *  *  *  gön *  *  *  *  lüm    | 
d4 z2dg g=ff=e fed^c B^A | B4d^c d=cB^A GAB3gf^e  | 
w:  *  Ya na rım  *  *  *  kim  |  se ler  *  *  *  bil *  *  *  mez   SAZ  | 
f4 ^e2f2 f2eg f4 z2 | d4ag =f=eed/e/ d^cd4ce  | 
w:  *  Bir_ aş ka *  *  dır   |  düş tü  *  *  *  gön *  *  *  *  lüm    | 
d4 z2dg g=ff=e fed^c B^A | B4d^c d=cB^A GAB4z2  | 
w:  *  Ya na rım  *  *  *  kim  |  se ler  *  *  *  bil *  *  *  mez    | 
|


